!!!COM: Hindemith, Paul
!!!OTL: Concerto for Woodwind Instruments, Harp and Orchestra
!!!OMV: III: Rondo: Rather Fast
!!!example: 674
!!!work: Hin-94
**kern	**dynam	**kern	**dynam	**kern	**dynam	**kern	**dynam
*part4	*part4	*part3	*part3	*part2	*part2	*part1	*part1
*staff4	*	*staff3	*	*staff2	*	*staff1	*
*I"Bass Clarinet in Bb	*	*I"Clarinet in Bb	*	*I"Oboe	*	*I"Flute	*
*I'B. Cl.	*	*I'Cl.	*	*I'Ob.	*	*I'Fl.	*
*clefG2	*	*clefG2	*	*clefG2	*	*clefG2	*
*k[]	*	*k[]	*	*k[]	*	*k[]	*
*	*	*	*	*	*	*	*
*M4/4	*	*M4/4	*	*M4/4	*	*M4/4	*
*MM121	*	*MM121	*	*MM121	*	*MM121	*
=136	=136	=136	=136	=136	=136	=136	=136
8D	.	2e-X	.	8cc	.	4ee-X	.
8r	.	.	.	8r	.	.	.
(4D	.	.	.	(4cc	.	(12ee-L	.
!	!	!	!	!	!	!LO:TX:a:t=Because of the nature of the extended techniques in the harp part, I have ommitted this,\nas it would skew the data	!
.	.	.	.	.	.	12dd	.
.	.	.	.	.	.	12ee-J)	.
8G)	.	4.e-	.	12b-XL)	.	4ff	.
.	.	.	.	12a-X	.	.	.
8r	.	.	.	.	.	.	.
.	.	.	.	12gJ	.	.	.
4G	.	.	.	4a-	.	(12ffL	.
.	.	.	.	.	.	12ee-	.
.	.	8e-	.	.	.	.	.
.	.	.	.	.	.	12ddJ)	.
=137	=137	=137	=137	=137	=137	=137	=137
4F-X	.	(4g	.	2e-X	.	(12ccL	.
.	.	.	.	.	.	12b-X)	.
.	.	.	.	.	.	12ccJ	.
8E--L	.	4f)	.	.	.	[4cc	.
8DJ	.	.	.	.	.	.	.
4r	.	4d'	.	(4f	.	12ccL]	.
.	.	.	.	.	.	12ff	.
.	.	.	.	.	.	12ccJ	.
4C'	.	4B-X'	.	8g)	.	(12ccL	.
.	.	.	.	.	.	12ff)	.
.	.	.	.	8r	.	.	.
.	.	.	.	.	.	12ccJ	.
=138	=138	=138	=138	=138	=138	=138	=138
4BB--'	.	4.B-X	.	4g	.	4b-X	.
4r	.	.	.	12ffL	p	4r	.
.	.	.	.	12ff	.	.	.
.	.	8e-X	.	.	.	.	.
.	.	.	.	12ffJ	.	.	.
2r	.	4.e-	.	8.ffL	.	4r	.
.	.	.	.	16ee-XJk	.	.	.
.	.	.	.	8.ee-L	.	12eee-XL	p
.	.	.	.	.	.	12eee-	.
.	.	8g	.	.	.	.	.
.	.	.	.	.	.	12eee-J	.
.	.	.	.	16dd-XJk	.	.	.
=139	=139	=139	=139	=139	=139	=139	=139
2r	.	(4g	.	(12dd-XL	.	8.eee-XL	.
.	.	.	.	12cc)	.	.	.
.	.	.	.	12b-XJ	.	.	.
.	.	.	.	.	.	16ddd-XJk	.
.	.	4f)	.	8a-X	.	(12ddd-L	.
.	.	.	.	.	.	12ccc)	.
.	.	.	.	8r	.	.	.
.	.	.	.	.	.	12bb-XJ	.
12dL	.	4d'	.	2r	.	8ccc	.
12d	.	.	.	.	.	.	.
.	.	.	.	.	.	8r	.
12dJ	.	.	.	.	.	.	.
8.dL	.	4B-X'	.	.	.	4r	.
16cJk	.	.	.	.	.	.	.
=140	=140	=140	=140	=140	=140	=140	=140
8.cL	.	4.B-X	.	2r	.	12a-XL	.
.	.	.	.	.	.	12a-	.
.	.	.	.	.	.	12a-J	.
16B--Jk	.	.	.	.	.	.	.
(12B--L	.	.	.	.	.	8.a-L	.
12A)	.	.	.	.	.	.	.
.	.	8g	.	.	.	.	.
12GJ	.	.	.	.	.	.	.
.	.	.	.	.	.	16gJk	.
8Fn	.	4.g	.	4r	.	(12gL	.
.	.	.	.	.	.	12f)	.
8r	.	.	.	.	.	.	.
.	.	.	.	.	.	12e-XJ	.
4r	.	.	.	12gg-XL	<	8d	.
.	.	.	.	12gg-	.	.	.
.	.	8b-X	.	.	.	8r	.
.	.	.	.	12gg-J	.	.	.
=141	=141	=141	=141	=141	=141	=141	=141
1r	.	2b-X	<	8.gg-XL	.	4r	.
.	.	.	.	16ffJk	.	.	.
.	.	.	.	8.ffL	.	12ccc-XL	<
.	.	.	.	.	.	12ccc-	.
.	.	.	.	.	.	12ccc-J	.
.	.	.	.	16ee-XJk	.	.	.
.	.	4a-X	.	(12ee-L	.	8.ccc-L	.
.	.	.	.	12dd-X)	.	.	.
.	.	.	.	12ccnJ	.	.	.
.	.	.	.	.	.	16bb-XJk	.
.	.	4g	.	8ddn	[	(12bb-L	.
.	.	.	.	.	.	12aa-X)	.
.	.	.	.	8r	.	.	.
.	.	.	.	.	.	12ggnJ	.
=142	=142	=142	=142	=142	=142	=142	=142
12a-XL	mf	4f	.	2r	.	8aa-X	.
12a-	.	.	.	.	.	.	.
.	.	.	.	.	.	8r	[
12a-J	.	.	.	.	.	.	.
8.a-L	.	8.eL	.	.	.	4r	.
16gJk	.	16gJk	.	.	.	.	.
8.gL	.	4f	.	12ee-XL	.	2r	.
.	.	.	.	12ee-	.	.	.
.	.	.	.	12ee-J	.	.	.
16f-XJk	.	.	.	.	.	.	.
(12f-L	.	8.cL	.	8.ee-L	.	.	.
12e--)	.	.	.	.	.	.	.
12dJ	.	.	.	.	.	.	.
.	.	16e-XJk	[[	16dd-XJk	.	.	.
=	=	=	=	=	=	=	=
*-	*-	*-	*-	*-	*-	*-	*-
!!!system-decoration: [(s1,s2,s3,s4)]{(s5,s6)}
!!!CDT: 1895/11/16-1963/12/28
!!!CBL: Hanau, Germany
!!!CDL: Frankfurt, Germany
!!!CNT: German
!!!AGN: Orchestral; Concerto
!!!MCN: Thor, Johnson
!!!MDT: 1949/05/15
!!!MGN: CBS Symphony Orchestra
!!!MLC: New York, New York, United States of America
!!!MPD: 1949
!!!MPN:
!!!ODT: 1949
!!!PDT: 1950
!!!excerpt-start-measure: 136
!!!excerpt-end-measure: 142
!!!excerpt-start-time: 3:26
!!!excerpt-end-time: 3:36
!!!EEV: 2020/01/25
!!!ONB: Converted from MusicXML on 2020/01/25
